X:429
T: Shuiben yangtian fanlanghua
N: C2047
O: China,Anhui Fengtai
S: III, 350, 1)]
R: Xiaodiao, Huagu diao. Cheshui]
M: 2/4
L: 1/16
K: A
a2b2a2b2 | c2b2c4 | c3ba8
a2b2c4 | e2c4b2 | a8 |
z2c2c4 | b4b4 | b4f2a2 | b3ca4 |
c'4c'4 | c'2c'2c'2c'2 | c'4z4 |
a2b2a2b2 | c2b2c4 | b2a2b4 | c2e2c2b2 | a8 |
f4c4 | b2cba4

@@@ Tune index: 6984
